elements/rpg-character/lib/faceItem/6.svg

<svg xmlns="http://www.w3.org/2000/svg" fill="none" width="113" height="142" viewBox="0 0 113 142"><path d="M43 72H28V57h15v15Zm35 0H63V57h15v15Z" fill="#645841"/><path d="M28 70h-5m20-8h5v-2h5m0 0v-2m0 2h5v2h5m-10-4h6v-1m-6 1h-6v-1m31 12h5" stroke="#645841"/></svg>

<svg width="113" height="142" viewBox="0 0 113 142" fill="none" xmlns="http://www.w3.org/2000/svg">
<path d="M43 72H28V57H43V72Z" fill="#645841"/>
<path d="M78 72H63V57H78V72Z" fill="#645841"/>
<path d="M28 70H23M43 62H48V60H53M53 60V58M53 60H58V62H63M53 58H59V57M53 58H47V57M78 69H83" stroke="#645841"/>
</svg>
